Origami/16x16/apps/inkscape-symbolic.svg

<svg width="16" height="16" version="1.1" xmlns="http://www.w3.org/2000/svg">
 <path d="m8 0c-0.45 0-0.9 0.17-1.24 0.53l-6.19 6.38c-0.34 0.35-0.52 0.81-0.53 1.27v0.03c0 1.37 3.65 0.04 3.98 1.71 0.18 0.91-1.99 0.49-1.99 1.4 0 1.07 3.07 0.34 3.95 1.21 0.36 0.88-1.18 0.74-0.9 1.56 0.51 0.53 1.67 0.23 1.89 1.09 0.26 0.98 1.92 0.81 2.89 0.09 0.52-0.53-0.79-0.77-0.28-1.31 0.52-0.53 3.06-0.42 3.08-1.58-0.24-0.73-1.2-0.85-1.21-1.71-0.05-0.73 0.78-0.52 3.42-1.24 1.05-0.5 1.09-0.76 1.09-1.22v-0.03c-0.01-0.46-0.22-0.92-0.56-1.27l-6.16-6.38c-0.35-0.36-0.79-0.53-1.24-0.53zm0.12 1.34c0.47 0 1.75 1.58 2.89 2.77 0.33 0.43-0.12 0.87-0.12 0.87l-2.39-1.31-1.06 1.43-0.93-1.4-0.56 2.18-1.65-0.99 0.44-0.56 2.58-2.65c0.19-0.2 0.35-0.34 0.8-0.34zm7.09 9.58c-0.13-0.01-0.25 0-0.34 0.03-0.17 0.05-0.97 0.08-0.9 0.68 0.72 0.31 1.82 0.55 1.95-0.06 0.1-0.45-0.33-0.64-0.71-0.65zm-12.34 2.02c-0.07 0.01-0.12 0.03-0.18 0.06-0.55 0.21-0.92 0.65-0.41 0.84s0.86-0.01 1.31-0.25 0.43-0.28 0.4-0.37c-0.06 0.01-0.47-0.24-0.9-0.28-0.07-0.01-0.15-0.01-0.22 0z" style="fill:#5c5c5c"/>
</svg>

<svg xmlns="http://www.w3.org/2000/svg" width="16" height="16" version="1.1">
 <path style="fill:#5c5c5c" d="M 8,0 C 7.55,0 7.1,0.17 6.76,0.53 L 0.57,6.91 C 0.23,7.26 0.05,7.72 0.04,8.18 0.04,8.19 0.04,8.2 0.04,8.21 0.04,9.58 3.69,8.25 4.02,9.92 4.2,10.83 2.03,10.41 2.03,11.32 2.03,12.39 5.1,11.66 5.98,12.53 6.34,13.41 4.8,13.27 5.08,14.09 5.59,14.62 6.75,14.32 6.97,15.18 7.23,16.16 8.89,15.99 9.86,15.27 10.38,14.74 9.07,14.5 9.58,13.96 10.1,13.43 12.64,13.54 12.66,12.38 12.42,11.65 11.46,11.53 11.45,10.67 11.4,9.94 12.23,10.15 14.87,9.43 15.92,8.93 15.96,8.67 15.96,8.21 15.96,8.2 15.96,8.19 15.96,8.18 15.95,7.72 15.74,7.26 15.4,6.91 L 9.24,0.53 C 8.89,0.17 8.45,0 8,0 Z M 8.12,1.34 C 8.59,1.34 9.87,2.92 11.01,4.11 11.34,4.54 10.89,4.98 10.89,4.98 L 8.5,3.67 7.44,5.1 6.51,3.7 5.95,5.88 4.3,4.89 4.74,4.33 7.32,1.68 C 7.51,1.48 7.67,1.34 8.12,1.34 Z M 15.21,10.92 C 15.08,10.91 14.96,10.92 14.87,10.95 14.7,11 13.9,11.03 13.97,11.63 14.69,11.94 15.79,12.18 15.92,11.57 16.02,11.12 15.59,10.93 15.21,10.92 Z M 2.87,12.94 C 2.8,12.95 2.75,12.97 2.69,13 2.14,13.21 1.77,13.65 2.28,13.84 2.79,14.03 3.14,13.83 3.59,13.59 4.04,13.35 4.02,13.31 3.99,13.22 3.93,13.23 3.52,12.98 3.09,12.94 3.02,12.93 2.94,12.93 2.87,12.94 Z"/>
</svg>
